;FLAVOR:Marlin
;TIME:4770
;Filament used: 3.29988m
;Layer height: 0.2
;MINX:154
;MINY:154
;MINZ:0.24
;MAXX:196
;MAXY:196
;MAXZ:20.04
;TARGET_MACHINE.NAME:Creality Ender-5 Plus
;Generated with Cura_SteamEngine 5.5.0
M82 ;absolute extrusion mode


; Pre-Processed for Cancel-Object support by preprocess_cancellation v0.2.0
; 1 known objects
EXCLUDE_OBJECT_DEFINE NAME=xyzCalibration_cube_stl CENTER=176.338,173.212 POLYGON=[[154.8,154.8],[154.8,195.2],[195.2,195.2],[195.2,154.8]]
; M190 S75
; M109 S210
M117 ;
start_print BED_TEMP=75 EXTRUDER_TEMP=210
G92 E0
G92 E0
G1 F1500 E-6.5
;LAYER_COUNT:100
;LAYER:0
M107
G0 F6000 X157.456 Y157.013 Z0.24
;TYPE:SKIRT
G1 F1500 E0
G1 F1200 X158.192 Y156.376 E0.03885
G1 X158.924 Y155.846 E0.07492
G1 X159.821 Y155.311 E0.1166
G1 X160.699 Y154.89 E0.15547
G1 X161.612 Y154.548 E0.19438
G1 X162.549 Y154.289 E0.23318
G1 X163.516 Y154.111 E0.27242
G1 X164.655 Y154.015 E0.31805
G1 X165.312 Y154 E0.34427
G1 X184.304 Y154 E1.10229
G1 X185.184 Y154.013 E1.13741
G1 X186.156 Y154.072 E1.17628
G1 X187.119 Y154.218 E1.21515
G1 X188.066 Y154.449 E1.25406
G1 X188.954 Y154.749 E1.29147
G1 X189.846 Y155.139 E1.33032
G1 X190.729 Y155.626 E1.37057
G1 X191.48 Y156.128 E1.40663
G1 X192.295 Y156.786 E1.44843
G1 X192.993 Y157.464 E1.48727
G1 X193.629 Y158.201 E1.52612
G1 X194.199 Y158.991 E1.565
G1 X194.661 Y159.767 E1.60105
G1 X195.115 Y160.709 E1.64279
G1 X195.444 Y161.587 E1.68021
G1 X195.713 Y162.559 E1.72046
G1 X195.89 Y163.525 E1.75966
G1 X195.985 Y164.655 E1.80492
G1 X196 Y165.33 E1.83187
G1 X195.999 Y184.4 E2.59299
G1 X195.988 Y185.163 E2.62345
G1 X195.931 Y186.136 E2.66235
G1 X195.786 Y187.099 E2.70122
G1 X195.557 Y188.045 E2.74006
G1 X195.246 Y188.969 E2.77898
G1 X194.854 Y189.86 E2.81783
G1 X194.386 Y190.712 E2.85662
G1 X193.864 Y191.493 E2.89412
G1 X193.231 Y192.278 E2.93437
G1 X192.606 Y192.929 E2.97038
G1 X191.817 Y193.617 E3.01217
G1 X191.057 Y194.167 E3.04961
G1 X190.19 Y194.684 E3.0899
G1 X189.312 Y195.106 E3.12878
G1 X188.401 Y195.448 E3.16762
G1 X187.462 Y195.709 E3.20651
G1 X186.496 Y195.887 E3.24572
G1 X185.345 Y195.985 E3.29182
G1 X184.67 Y196 E3.31877
G1 X165.564 Y195.999 E4.08133
G1 X164.831 Y195.988 E4.11059
G1 X163.859 Y195.931 E4.14945
G1 X162.896 Y195.785 E4.18833
G1 X161.95 Y195.556 E4.22717
G1 X161.026 Y195.244 E4.2661
G1 X160.136 Y194.852 E4.30491
G1 X159.313 Y194.401 E4.34237
G1 X158.474 Y193.84 E4.38265
G1 X157.77 Y193.274 E4.41871
G1 X157.017 Y192.549 E4.46043
G1 X156.38 Y191.813 E4.49928
G1 X155.85 Y191.082 E4.53531
G1 X155.314 Y190.185 E4.57702
G1 X154.892 Y189.307 E4.6159
G1 X154.55 Y188.395 E4.65477
G1 X154.29 Y187.457 E4.69362
G1 X154.112 Y186.488 E4.73295
G1 X154.014 Y185.309 E4.78016
G1 X154 Y184.658 E4.80615
G1 X154.001 Y165.525 E5.56979
G1 X154.012 Y164.825 E5.59773
G1 X154.07 Y163.852 E5.63664
G1 X154.216 Y162.889 E5.67551
G1 X154.446 Y161.943 E5.71437
G1 X154.759 Y161.02 E5.75327
G1 X155.151 Y160.13 E5.79208
G1 X155.621 Y159.277 E5.83095
G1 X156.164 Y158.469 E5.86981
G1 X156.731 Y157.765 E5.90589
G1 X157.456 Y157.013 E5.94758
G0 F6000 X157.718 Y157.315
G1 F1200 X158.427 Y156.7 E5.98504
G1 X159.159 Y156.17 E6.02111
G1 X159.995 Y155.671 E6.05997
G1 X160.84 Y155.264 E6.0974
G1 X161.719 Y154.933 E6.13489
G1 X162.622 Y154.682 E6.1723
G1 X163.55 Y154.51 E6.20997
G1 X164.689 Y154.414 E6.25559
G1 X165.321 Y154.4 E6.28082
G1 X184.298 Y154.4 E7.03823
G1 X185.16 Y154.412 E7.07264
G1 X186.097 Y154.468 E7.1101
G1 X187.025 Y154.607 E7.14755
G1 X187.938 Y154.828 E7.18505
G1 X188.794 Y155.116 E7.22109
G1 X189.686 Y155.506 E7.25995
G1 X190.507 Y155.959 E7.29737
G1 X191.258 Y156.461 E7.33343
G1 X192.017 Y157.073 E7.37234
G1 X192.691 Y157.726 E7.4098
G1 X193.305 Y158.435 E7.44723
G1 X193.855 Y159.196 E7.48471
G1 X194.317 Y159.972 E7.52075
G1 X194.74 Y160.849 E7.55961
G1 X195.069 Y161.727 E7.59704
G1 X195.32 Y162.632 E7.63452
G1 X195.491 Y163.559 E7.67214
G1 X195.586 Y164.689 E7.7174
G1 X195.6 Y165.33 E7.74299
G1 X195.599 Y184.395 E8.50392
G1 X195.589 Y185.14 E8.53365
G1 X195.535 Y186.077 E8.57111
G1 X195.397 Y187.006 E8.6086
G1 X195.178 Y187.918 E8.64603
G1 X194.88 Y188.808 E8.68349
G1 X194.503 Y189.668 E8.72097
G1 X194.053 Y190.49 E8.75837
G1 X193.531 Y191.271 E8.79587
G1 X192.942 Y192.001 E8.8333
G1 X192.317 Y192.652 E8.86932
G1 X191.582 Y193.293 E8.90825
G1 X190.822 Y193.843 E8.94569
G1 X190.016 Y194.324 E8.98315
G1 X189.171 Y194.732 E9.0206
G1 X188.293 Y195.063 E9.05805
G1 X187.389 Y195.316 E9.09552
G1 X186.462 Y195.488 E9.13315
G1 X185.311 Y195.586 E9.17926
G1 X184.67 Y195.6 E9.20485
G1 X165.57 Y195.599 E9.96717
G1 X164.854 Y195.589 E9.99575
G1 X163.918 Y195.535 E10.03317
G1 X162.989 Y195.396 E10.07066
G1 X162.077 Y195.177 E10.10809
G1 X161.187 Y194.878 E10.14557
G1 X160.328 Y194.501 E10.18301
G1 X159.505 Y194.05 E10.22047
G1 X158.725 Y193.528 E10.25792
G1 X158.021 Y192.962 E10.29398
G1 X157.319 Y192.287 E10.33285
G1 X156.704 Y191.578 E10.37031
G1 X156.174 Y190.847 E10.40634
G1 X155.674 Y190.011 E10.44522
G1 X155.266 Y189.166 E10.48268
G1 X154.935 Y188.288 E10.52013
G1 X154.683 Y187.384 E10.55758
G1 X154.511 Y186.455 E10.59529
G1 X154.413 Y185.276 E10.64251
G1 X154.4 Y184.658 E10.66718
G1 X154.401 Y165.531 E11.43058
G1 X154.411 Y164.848 E11.45784
G1 X154.466 Y163.911 E11.49531
G1 X154.605 Y162.983 E11.53276
G1 X154.825 Y162.071 E11.5702
G1 X155.125 Y161.181 E11.60769
G1 X155.502 Y160.322 E11.64513
G1 X155.953 Y159.5 E11.68255
G1 X156.476 Y158.72 E11.72003
G1 X157.043 Y158.016 E11.75611
G1 X157.718 Y157.315 E11.79495
G0 F6000 X157.981 Y157.617
G1 F1200 X158.662 Y157.024 E11.83099
G1 X159.394 Y156.494 E11.86706
G1 X160.169 Y156.031 E11.90309
G1 X160.982 Y155.638 E11.93913
G1 X161.827 Y155.318 E11.9752
G1 X162.696 Y155.075 E12.01121
G1 X163.584 Y154.909 E12.04727
G1 X164.723 Y154.813 E12.09289
G1 X165.33 Y154.8 E12.11712
G1 X184.293 Y154.8 E12.87397
G1 X185.137 Y154.811 E12.90766
G1 X186.039 Y154.864 E12.94373
G1 X186.932 Y154.996 E12.97975
G1 X187.81 Y155.207 E13.01579
G1 X188.666 Y155.495 E13.05184
G1 X189.493 Y155.857 E13.08787
G1 X190.285 Y156.292 E13.12394
G1 X191.036 Y156.794 E13.15999
G1 X191.739 Y157.361 E13.19604
G1 X192.389 Y157.988 E13.23208
G1 X192.981 Y158.67 E13.26813
G1 X193.511 Y159.401 E13.30417
G1 X193.973 Y160.177 E13.34021
G1 X194.366 Y160.99 E13.37625
G1 X194.684 Y161.835 E13.41229
G1 X194.927 Y162.705 E13.44834
G1 X195.092 Y163.593 E13.48439
G1 X195.187 Y164.723 E13.52965
G1 X195.2 Y165.33 E13.55388
G1 X195.199 Y184.39 E14.31461
G1 X195.19 Y185.117 E14.34362
G1 X195.139 Y186.019 E14.37968
G1 X195.008 Y186.913 E14.41574
G1 X194.799 Y187.791 E14.45177
G1 X194.513 Y188.648 E14.48783
G1 X194.152 Y189.476 E14.52388
G1 X193.72 Y190.268 E14.55988
G1 X193.219 Y191.02 E14.59595
G1 X192.653 Y191.724 E14.632
G1 X192.028 Y192.375 E14.66802
G1 X191.347 Y192.969 E14.70409
G1 X190.616 Y193.5 E14.74015
G1 X189.842 Y193.964 E14.77617
G1 X189.029 Y194.358 E14.81223
G1 X188.185 Y194.678 E14.84825
G1 X187.315 Y194.923 E14.88433
G1 X186.428 Y195.089 E14.92034
G1 X185.277 Y195.187 E14.96645
G1 X184.67 Y195.2 E14.99068
G1 X165.575 Y195.199 E15.7528
G1 X164.877 Y195.19 E15.78066
G1 X163.976 Y195.139 E15.81668
G1 X163.082 Y195.007 E15.85275
G1 X162.204 Y194.798 E15.88877
G1 X161.347 Y194.511 E15.92484
G1 X160.52 Y194.15 E15.96086
G1 X159.727 Y193.717 E15.99692
G1 X158.976 Y193.216 E16.03295
G1 X158.272 Y192.65 E16.069
G1 X157.621 Y192.024 E16.10505
G1 X157.028 Y191.343 E16.14109
G1 X156.498 Y190.612 E16.17713
G1 X156.034 Y189.837 E16.21318
G1 X155.64 Y189.024 E16.24924
G1 X155.32 Y188.18 E16.28527
G1 X155.076 Y187.31 E16.32133
G1 X154.91 Y186.422 E16.35738
G1 X154.813 Y185.267 E16.40365
G1 X154.8 Y184.658 E16.42796
G1 X154.801 Y165.536 E17.19116
G1 X154.81 Y164.871 E17.2177
G1 X154.862 Y163.969 E17.25376
G1 X154.994 Y163.076 E17.28979
G1 X155.204 Y162.198 E17.32582
G1 X155.491 Y161.341 E17.36189
G1 X155.853 Y160.514 E17.39793
G1 X156.286 Y159.722 E17.43395
G1 X156.788 Y158.971 E17.47001
G1 X157.355 Y158.267 E17.50608
G1 X157.981 Y157.617 E17.5421
G1 F1500 E11.0421
;MESH:xyzCalibration_cube.stl
EXCLUDE_OBJECT_START NAME=xyzCalibration_cube_stl
G0 F6000 X165.414 Y164.335
G0 X184.4 Y184.4
;TYPE:WALL-INNER
G1 F1500 E17.5421
G1 F1200 X184.4 Y165.6 E18.29245
G1 X165.6 Y165.6 E19.0428
G1 X165.6 Y184.4 E19.79315
G1 X184.4 Y184.4 E20.5435
G0 F6000 X184.8 Y184.8
;TYPE:WALL-OUTER
G1 F1200 X184.8 Y165.2 E21.32577
G1 X165.2 Y165.2 E22.10805
G1 X165.2 Y184.8 E22.89033
G1 X184.8 Y184.8 E23.67261
G0 F6000 X184.53 Y184.53
G0 X184.3 Y184.04
G0 X184.04 Y184.04
;TYPE:SKIN
G1 F1200 X165.96 Y184.04 E24.39422
G1 X165.96 Y165.96 E25.11583
G1 X184.04 Y165.96 E25.83745
G1 X184.04 Y184.04 E26.55906
G0 F6000 X184.3 Y184.04
G0 X184.3 Y166.303
G0 X183.839 Y166.303
G1 F1200 X183.696 Y166.16 E26.56713
G0 F6000 X183.13 Y166.16
G1 F1200 X183.839 Y166.869 E26.60715
G0 F6000 X183.839 Y167.435
G1 F1200 X182.565 Y166.16 E26.67909
G0 F6000 X181.999 Y166.16
G1 F1200 X183.839 Y168 E26.78294
G0 F6000 X183.839 Y168.566
G1 F1200 X181.433 Y166.16 E26.91875
G0 F6000 X180.868 Y166.16
G1 F1200 X183.839 Y169.132 E27.08647
G0 F6000 X183.839 Y169.697
G1 F1200 X180.302 Y166.16 E27.28612
G0 F6000 X179.736 Y166.16
G1 F1200 X183.839 Y170.263 E27.51771
G0 F6000 X183.839 Y170.829
G1 F1200 X179.17 Y166.16 E27.78125
G0 F6000 X178.605 Y166.16
G1 F1200 X183.839 Y171.394 E28.07668
G0 F6000 X183.839 Y171.96
G1 F1200 X178.039 Y166.16 E28.40405
G0 F6000 X177.473 Y166.16
G1 F1200 X183.839 Y172.526 E28.76338
G0 F6000 X183.839 Y173.091
G1 F1200 X176.908 Y166.16 E29.15459
G0 F6000 X176.342 Y166.16
G1 F1200 X183.839 Y173.657 E29.57776
G0 F6000 X183.839 Y174.223
G1 F1200 X175.776 Y166.16 E30.03287
G0 F6000 X175.211 Y166.16
G1 F1200 X183.839 Y174.789 E30.5199
G0 F6000 X183.839 Y175.354
G1 F1200 X174.645 Y166.16 E31.03885
G0 F6000 X174.079 Y166.16
G1 F1200 X183.839 Y175.92 E31.58974
G0 F6000 X183.839 Y176.486
G1 F1200 X173.514 Y166.16 E32.17256
G0 F6000 X172.948 Y166.16
G1 F1200 X183.839 Y177.051 E32.78729
G0 F6000 X183.839 Y177.617
G1 F1200 X172.382 Y166.16 E33.43398
G0 F6000 X171.817 Y166.16
G1 F1200 X183.839 Y178.183 E34.11258
G0 F6000 X183.839 Y178.748
G1 F1200 X171.251 Y166.16 E34.8231
G0 F6000 X170.685 Y166.16
G1 F1200 X183.839 Y179.314 E35.56557
G0 F6000 X183.839 Y179.88
G1 F1200 X170.119 Y166.16 E36.33998
G0 F6000 X169.554 Y166.16
G1 F1200 X183.839 Y180.445 E37.14629
G0 F6000 X183.839 Y181.011
G1 F1200 X168.988 Y166.16 E37.98455
G0 F6000 X168.422 Y166.16
G1 F1200 X183.839 Y181.577 E38.85475
G0 F6000 X183.839 Y182.142
G1 F1200 X167.857 Y166.16 E39.75684
G0 F6000 X167.291 Y166.16
G1 F1200 X183.839 Y182.708 E40.69088
G0 F6000 X183.839 Y183.274
G1 F1200 X166.725 Y166.16 E41.65687
G0 F6000 X166.159 Y166.159
G1 F1200 X183.839 Y183.839 E42.6548
G0 F6000 X183.273 Y183.839
G1 F1200 X166.159 Y166.725 E43.62079
G0 F6000 X166.159 Y167.29
G1 F1200 X182.707 Y183.839 E44.55486
G0 F6000 X182.142 Y183.839
G1 F1200 X166.159 Y167.856 E45.45701
G0 F6000 X166.159 Y168.422
G1 F1200 X181.576 Y183.839 E46.32721
G0 F6000 X181.01 Y183.839
G1 F1200 X166.159 Y168.987 E47.1655
G0 F6000 X166.159 Y169.553
G1 F1200 X180.445 Y183.839 E47.97186
G0 F6000 X179.879 Y183.839
G1 F1200 X166.159 Y170.119 E48.74628
G0 F6000 X166.159 Y170.684
G1 F1200 X179.313 Y183.839 E49.48877
G0 F6000 X178.748 Y183.839
G1 F1200 X166.159 Y171.25 E50.19935
G0 F6000 X166.159 Y171.816
G1 F1200 X178.182 Y183.839 E50.87798
G0 F6000 X177.616 Y183.839
G1 F1200 X166.159 Y172.382 E51.52466
G0 F6000 X166.159 Y172.947
G1 F1200 X177.051 Y183.839 E52.13945
G0 F6000 X176.485 Y183.839
G1 F1200 X166.159 Y173.513 E52.7223
G0 F6000 X166.159 Y174.079
G1 F1200 X175.919 Y183.839 E53.27319
G0 F6000 X175.353 Y183.839
G1 F1200 X166.159 Y174.644 E53.79217
G0 F6000 X166.159 Y175.21
G1 F1200 X174.788 Y183.839 E54.27923
G0 F6000 X174.222 Y183.839
G1 F1200 X166.159 Y175.776 E54.73434
G0 F6000 X166.159 Y176.341
G1 F1200 X173.656 Y183.839 E55.15753
G0 F6000 X173.091 Y183.839
G1 F1200 X166.159 Y176.907 E55.5488
G0 F6000 X166.159 Y177.473
G1 F1200 X172.525 Y183.839 E55.90813
G0 F6000 X171.959 Y183.839
G1 F1200 X166.159 Y178.038 E56.23553
G0 F6000 X166.159 Y178.604
G1 F1200 X171.394 Y183.839 E56.53102
G0 F6000 X170.828 Y183.839
G1 F1200 X166.159 Y179.17 E56.79456
G0 F6000 X166.159 Y179.735
G1 F1200 X170.262 Y183.839 E57.02618
G0 F6000 X169.697 Y183.839
M104 S205
G1 F1200 X166.159 Y180.301 E57.22588
G0 F6000 X166.159 Y180.867
G1 F1200 X169.131 Y183.839 E57.39363
G0 F6000 X168.565 Y183.839
G1 F1200 X166.159 Y181.432 E57.52946
G0 F6000 X166.159 Y181.998
G1 F1200 X168 Y183.839 E57.63338
G0 F6000 X167.434 Y183.839
G1 F1200 X166.159 Y182.564 E57.70534
G0 F6000 X166.159 Y183.13
G1 F1200 X166.868 Y183.839 E57.74536
G0 F6000 X166.303 Y183.839
G1 F1200 X166.159 Y183.695 E57.75349
G1 F1500 E51.25349
;MESH:NONMESH
EXCLUDE_OBJECT_END NAME=xyzCalibration_cube_stl
G0 F300 X166.159 Y183.695 Z0.44
G0 F6000 X165.7 Y183.695
G0 X165.414 Y165.414
G0 X165.414 Y164.335
G0 X157.981 Y157.617
;TIME_ELAPSED:84.597420
;LAYER:1
M140 S70
M106 S85
;TYPE:SKIRT
G1 F1500 E57.75349
G1 F1200 X158.662 Y157.024 E57.78353
G1 X159.394 Y156.494 E57.81358
G1 X160.169 Y156.031 E57.84361
G1 X160.982 Y155.638 E57.87364
G1 X161.827 Y155.318 E57.9037
G1 X162.696 Y155.075 E57.93371
G1 X163.584 Y154.909 E57.96375
G1 X164.723 Y154.813 E58.00177
G1 X165.33 Y154.8 E58.02197
G1 X184.293 Y154.8 E58.65268
G1 X185.137 Y154.811 E58.68075
G1 X186.039 Y154.864 E58.7108
G1 X186.932 Y154.996 E58.74083
G1 X187.81 Y155.207 E58.77086
G1 X188.666 Y155.495 E58.8009
G1 X189.493 Y155.857 E58.83093
G1 X190.285 Y156.292 E58.86098
G1 X191.036 Y156.794 E58.89103
G1 X191.739 Y157.361 E58.92106
G1 X192.389 Y157.988 E58.9511
G1 X192.981 Y158.67 E58.98114
G1 X193.511 Y159.401 E59.01117
G1 X193.973 Y160.177 E59.04121
G1 X194.366 Y160.99 E59.07124
G1 X194.684 Y161.835 E59.10127
G1 X194.927 Y162.705 E59.13132
G1 X195.092 Y163.593 E59.16136
G1 X195.187 Y164.723 E59.19907
G1 X195.2 Y165.33 E59.21927
G1 X195.199 Y184.39 E59.8532
G1 X195.19 Y185.117 E59.87739
G1 X195.139 Y186.019 E59.90743
G1 X195.008 Y186.913 E59.93749
G1 X194.799 Y187.791 E59.96751
G1 X194.513 Y188.648 E59.99755
G1 X194.152 Y189.476 E60.0276
G1 X193.72 Y190.268 E60.0576
G1 X193.219 Y191.02 E60.08766
G1 X192.653 Y191.724 E60.1177
G1 X192.028 Y192.375 E60.14772
G1 X191.347 Y192.969 E60.17777
G1 X190.616 Y193.5 E60.20782
G1 X189.842 Y193.964 E60.23784
G1 X189.029 Y194.358 E60.26789
G1 X188.185 Y194.678 E60.29791
G1 X187.315 Y194.923 E60.32797
G1 X186.428 Y195.089 E60.35798
G1 X185.277 Y195.187 E60.39641
G1 X184.67 Y195.2 E60.4166
G1 X165.575 Y195.199 E61.0517
G1 X164.877 Y195.19 E61.07492
G1 X163.976 Y195.139 E61.10493
G1 X163.082 Y195.007 E61.13499
G1 X162.204 Y194.798 E61.16501
G1 X161.347 Y194.511 E61.19507
G1 X160.52 Y194.15 E61.22508
G1 X159.727 Y193.717 E61.25513
G1 X158.976 Y193.216 E61.28516
G1 X158.272 Y192.65 E61.3152
G1 X157.621 Y192.024 E61.34524
G1 X157.028 Y191.343 E61.37528
G1 X156.498 Y190.612 E61.40531
G1 X156.034 Y189.837 E61.43535
G1 X155.64 Y189.024 E61.4654
G1 X155.32 Y188.18 E61.49542
G1 X155.076 Y187.31 E61.52547
G1 X154.91 Y186.422 E61.55552
G1 X154.813 Y185.267 E61.59407
G1 X154.8 Y184.658 E61.61433
G1 X154.801 Y165.536 E62.25033
G1 X154.81 Y164.871 E62.27245
G1 X154.862 Y163.969 E62.3025
G1 X154.994 Y163.076 E62.33253
G1 X155.204 Y162.198 E62.36255
G1 X155.491 Y161.341 E62.39261
G1 X155.853 Y160.514 E62.42264
G1 X156.286 Y159.722 E62.45266
G1 X156.788 Y158.971 E62.4827
G1 X157.355 Y158.267 E62.51277
G1 X157.981 Y157.617 E62.54278
G1 F1500 E56.04278
;MESH:xyzCalibration_cube.stl
EXCLUDE_OBJECT_START NAME=xyzCalibration_cube_stl
G0 F7500 X165.414 Y164.335
G0 X184.4 Y184.4
;TYPE:WALL-INNER
G1 F1500 E62.54278
G1 F1650 X184.4 Y165.6 E63.16808
G1 X165.6 Y165.6 E63.79337
G1 X165.6 Y184.4 E64.41866
G1 X184.4 Y184.4 E65.04395
G0 F7500 X184.8 Y184.8
;TYPE:WALL-OUTER
G1 F1650 X184.8 Y165.2 E65.69585
G1 X165.2 Y165.2 E66.34774
G1 X165.2 Y184.8 E66.99964
G1 X184.8 Y184.8 E67.65154
G0 F7500 X184.53 Y184.53
G0 X184.3 Y184.04
G0 X184.04 Y184.04
;TYPE:SKIN
G1 F1350 X165.96 Y184.04 E68.25288
G1 X165.96 Y165.96 E68.85423
G1 X184.04 Y165.96 E69.45557
G1 X184.04 Y184.04 E70.05691
G0 F7500 X183.839 Y183.29
