;FLAVOR:Marlin
;TIME:1832
;Filament used: 1.23529m
;Layer height: 0.2
;MINX:15.86
;MINY:15.86
;MINZ:0.24
;MAXX:334.14
;MAXY:334.14
;MAXZ:0.24
;TARGET_MACHINE.NAME:Creality Ender-5 Plus
;Post-Processed by AutoTowersGenerator
;Generated with Cura_SteamEngine 5.5.0
M82 ;absolute extrusion mode


; Pre-Processed for Cancel-Object support by preprocess_cancellation v0.2.0
; 1 known objects
EXCLUDE_OBJECT_DEFINE NAME=AutoTowersGenerator CENTER=175.558,174.396 POLYGON=[[27.06,27.06],[27.06,322.94],[322.94,322.94],[322.94,27.06]]
; M190 S75
; M109 S210
M117 ;
start_print BED_TEMP=75 EXTRUDER_TEMP=210
G92 E0
G92 E0
G1 F1500 E-6.5
;LAYER_COUNT:1
;LAYER:0
M107
G0 F6000 X19.316 Y18.873 Z0.24
;TYPE:SKIRT
G1 F1500 E0
G1 F1200 X20.052 Y18.236 E0.03885
G1 X20.784 Y17.706 E0.07492
G1 X21.681 Y17.171 E0.1166
G1 X22.559 Y16.75 E0.15547
G1 X23.472 Y16.408 E0.19438
G1 X24.409 Y16.149 E0.23318
G1 X25.376 Y15.971 E0.27242
G1 X26.515 Y15.875 E0.31805
G1 X27.172 Y15.86 E0.34427
G1 X46.164 Y15.86 E1.10229
G1 X47.047 Y15.873 E1.13753
G1 X48.019 Y15.932 E1.1764
G1 X48.967 Y16.074 E1.21466
G1 X49.46 Y16.182 E1.2348
G1 X50.084 Y16.334 E1.26043
G1 X52.673 Y16.932 E1.36649
G1 X55.109 Y17.42 E1.46564
G1 X57.586 Y17.846 E1.56596
G1 X60.109 Y18.205 E1.66767
G1 X62.558 Y18.483 E1.76604
G1 X65.082 Y18.7 E1.86715
G1 X67.596 Y18.841 E1.96765
G1 X70.135 Y18.914 E2.06903
G1 X72.626 Y18.914 E2.16845
G1 X75.152 Y18.843 E2.26931
G1 X77.648 Y18.703 E2.36909
G1 X80.196 Y18.487 E2.47115
G1 X82.654 Y18.207 E2.56989
G1 X85.187 Y17.847 E2.672
G1 X87.663 Y17.423 E2.77226
G1 X90.078 Y16.94 E2.87056
G1 X92.686 Y16.339 E2.97738
G1 X93.381 Y16.171 E3.00591
G1 X94.267 Y15.997 E3.04195
G1 X95.636 Y15.873 E3.09681
G1 X96.26 Y15.86 E3.12173
G1 X115.38 Y15.861 E3.88485
G1 X116.117 Y15.873 E3.91427
G1 X117.089 Y15.932 E3.95313
G1 X118.037 Y16.074 E3.99139
G1 X118.53 Y16.182 E4.01153
G1 X119.154 Y16.334 E4.03717
G1 X121.743 Y16.932 E4.14322
G1 X124.179 Y17.42 E4.24238
G1 X126.656 Y17.846 E4.34269
G1 X129.179 Y18.205 E4.4444
G1 X131.628 Y18.483 E4.54278
G1 X134.152 Y18.7 E4.64389
G1 X136.666 Y18.841 E4.74438
G1 X139.205 Y18.914 E4.84576
G1 X141.696 Y18.914 E4.94518
G1 X144.222 Y18.843 E5.04604
G1 X146.718 Y18.701 E5.14582
G1 X149.266 Y18.487 E5.24788
G1 X151.724 Y18.207 E5.34662
G1 X154.257 Y17.847 E5.44873
G1 X156.733 Y17.423 E5.54899
G1 X159.148 Y16.94 E5.64729
G1 X161.756 Y16.339 E5.75411
G1 X162.451 Y16.171 E5.78264
G1 X163.337 Y15.997 E5.81868
G1 X164.706 Y15.873 E5.87355
G1 X165.33 Y15.86 E5.89846
G1 X184.45 Y15.861 E6.66158
G1 X185.187 Y15.873 E6.691
G1 X186.159 Y15.932 E6.72986
G1 X187.107 Y16.074 E6.76812
G1 X187.6 Y16.182 E6.78826
G1 X188.224 Y16.334 E6.8139
G1 X190.813 Y16.932 E6.91995
G1 X193.249 Y17.42 E7.01911
G1 X195.726 Y17.846 E7.11942
G1 X198.249 Y18.205 E7.22113
G1 X200.698 Y18.483 E7.31951
G1 X203.222 Y18.7 E7.42062
G1 X205.736 Y18.841 E7.52111
G1 X208.275 Y18.914 E7.62249
G1 X210.766 Y18.914 E7.72191
G1 X213.292 Y18.843 E7.82277
G1 X215.788 Y18.701 E7.92255
G1 X218.336 Y18.487 E8.02461
G1 X220.794 Y18.207 E8.12335
G1 X223.327 Y17.847 E8.22546
G1 X225.803 Y17.423 E8.32572
G1 X228.218 Y16.94 E8.42402
G1 X230.826 Y16.339 E8.53084
G1 X231.521 Y16.171 E8.55937
G1 X232.407 Y15.997 E8.59541
G1 X233.776 Y15.873 E8.65028
G1 X234.4 Y15.86 E8.67519
G1 X253.52 Y15.861 E9.43831
G1 X254.257 Y15.873 E9.46773
G1 X255.229 Y15.932 E9.50659
G1 X256.177 Y16.074 E9.54485
G1 X256.67 Y16.182 E9.56499
G1 X257.294 Y16.334 E9.59063
G1 X259.883 Y16.932 E9.69668
G1 X262.319 Y17.42 E9.79584
G1 X264.796 Y17.846 E9.89615
G1 X267.319 Y18.205 E9.99787
G1 X269.768 Y18.483 E10.09624
G1 X272.292 Y18.7 E10.19735
G1 X274.806 Y18.841 E10.29784
G1 X277.345 Y18.914 E10.39922
G1 X279.836 Y18.914 E10.49864
G1 X282.362 Y18.843 E10.5995
G1 X284.858 Y18.701 E10.69928
G1 X287.406 Y18.487 E10.80134
G1 X289.864 Y18.207 E10.90008
G1 X292.397 Y17.847 E11.00219
G1 X294.873 Y17.423 E11.10245
G1 X297.288 Y16.94 E11.20075
G1 X299.896 Y16.339 E11.30757
G1 X300.591 Y16.171 E11.33611
G1 X301.477 Y15.997 E11.37214
G1 X302.846 Y15.873 E11.42701
G1 X303.47 Y15.86 E11.45192
G1 X322.576 Y15.861 E12.21448
G1 X323.309 Y15.872 E12.24374
G1 X324.281 Y15.929 E12.2826
G1 X325.244 Y16.075 E12.32147
G1 X326.19 Y16.304 E12.36032
G1 X327.114 Y16.616 E12.39925
G1 X328.004 Y17.008 E12.43806
G1 X328.827 Y17.459 E12.47552
G1 X329.666 Y18.02 E12.5158
G1 X330.37 Y18.586 E12.55185
G1 X331.123 Y19.311 E12.59357
G1 X331.76 Y20.047 E12.63242
G1 X332.29 Y20.778 E12.66846
G1 X332.826 Y21.675 E12.71017
G1 X333.248 Y22.553 E12.74905
G1 X333.59 Y23.465 E12.78792
G1 X333.85 Y24.403 E12.82677
G1 X334.028 Y25.37 E12.86601
G1 X334.125 Y26.515 E12.91188
G1 X334.14 Y27.19 E12.93882
G1 X334.139 Y46.287 E13.70103
G1 X334.127 Y47.042 E13.73116
G1 X334.069 Y48.016 E13.77011
G1 X333.936 Y48.909 E13.80614
G1 X333.818 Y49.46 E13.82863
G1 X333.674 Y50.049 E13.85283
G1 X333.068 Y52.673 E13.96032
G1 X332.578 Y55.117 E14.05981
G1 X332.15 Y57.61 E14.16076
G1 X331.795 Y60.109 E14.2615
G1 X331.517 Y62.558 E14.35988
G1 X331.3 Y65.082 E14.46099
G1 X331.159 Y67.596 E14.56148
G1 X331.086 Y70.135 E14.66286
G1 X331.086 Y72.648 E14.76316
G1 X331.157 Y75.153 E14.86318
G1 X331.299 Y77.648 E14.96292
G1 X331.513 Y80.196 E15.06498
G1 X331.793 Y82.654 E15.16372
G1 X332.149 Y85.165 E15.26494
G1 X332.574 Y87.649 E15.36552
G1 X333.06 Y90.078 E15.46439
G1 X333.645 Y92.627 E15.56877
G1 X333.821 Y93.34 E15.59808
G1 X334.003 Y94.268 E15.63583
G1 X334.125 Y95.603 E15.68933
G1 X334.14 Y96.26 E15.71556
G1 X334.139 Y115.357 E16.47776
G1 X334.127 Y116.112 E16.5079
G1 X334.069 Y117.086 E16.54684
G1 X333.936 Y117.979 E16.58288
G1 X333.818 Y118.53 E16.60537
G1 X333.674 Y119.119 E16.62957
G1 X333.068 Y121.743 E16.73705
G1 X332.578 Y124.187 E16.83654
G1 X332.15 Y126.68 E16.9375
G1 X331.795 Y129.179 E17.03824
G1 X331.517 Y131.628 E17.13661
G1 X331.3 Y134.152 E17.23772
G1 X331.159 Y136.666 E17.33822
G1 X331.086 Y139.205 E17.4396
G1 X331.086 Y141.718 E17.5399
G1 X331.157 Y144.223 E17.63992
G1 X331.299 Y146.718 E17.73966
G1 X331.513 Y149.266 E17.84171
G1 X331.793 Y151.724 E17.94045
G1 X332.149 Y154.235 E18.04167
G1 X332.574 Y156.719 E18.14226
G1 X333.06 Y159.148 E18.24112
G1 X333.645 Y161.697 E18.34551
G1 X333.821 Y162.41 E18.37482
G1 X334.003 Y163.338 E18.41256
G1 X334.125 Y164.673 E18.46607
G1 X334.14 Y165.33 E18.49229
G1 X334.139 Y184.427 E19.2545
G1 X334.127 Y185.182 E19.28463
G1 X334.069 Y186.156 E19.32358
G1 X333.936 Y187.049 E19.35961
G1 X333.818 Y187.6 E19.3821
G1 X333.674 Y188.189 E19.4063
G1 X333.068 Y190.813 E19.51379
G1 X332.578 Y193.257 E19.61328
G1 X332.15 Y195.75 E19.71423
G1 X331.795 Y198.249 E19.81497
G1 X331.517 Y200.698 E19.91335
G1 X331.3 Y203.222 E20.01446
G1 X331.159 Y205.736 E20.11495
G1 X331.086 Y208.275 E20.21633
G1 X331.086 Y210.788 E20.31663
G1 X331.157 Y213.293 E20.41665
G1 X331.299 Y215.788 E20.51639
G1 X331.513 Y218.336 E20.61845
G1 X331.793 Y220.794 E20.71719
G1 X332.149 Y223.305 E20.81841
G1 X332.574 Y225.789 E20.91899
G1 X333.06 Y228.218 E21.01786
G1 X333.645 Y230.767 E21.12224
G1 X333.821 Y231.48 E21.15155
G1 X334.003 Y232.408 E21.1893
G1 X334.125 Y233.743 E21.2428
G1 X334.14 Y234.4 E21.26903
G1 X334.139 Y253.497 E22.03123
G1 X334.127 Y254.252 E22.06137
G1 X334.069 Y255.226 E22.10031
G1 X333.936 Y256.119 E22.13635
G1 X333.818 Y256.67 E22.15884
G1 X333.674 Y257.259 E22.18304
G1 X333.068 Y259.883 E22.29052
G1 X332.578 Y262.327 E22.39001
G1 X332.15 Y264.82 E22.49097
G1 X331.795 Y267.319 E22.59171
G1 X331.517 Y269.768 E22.69008
G1 X331.3 Y272.292 E22.79119
G1 X331.159 Y274.806 E22.89169
G1 X331.086 Y277.345 E22.99307
G1 X331.086 Y279.858 E23.09337
G1 X331.157 Y282.363 E23.19339
G1 X331.299 Y284.858 E23.29313
G1 X331.513 Y287.406 E23.39518
G1 X331.793 Y289.864 E23.49392
G1 X332.149 Y292.375 E23.59514
G1 X332.574 Y294.859 E23.69573
G1 X333.06 Y297.288 E23.79459
G1 X333.645 Y299.837 E23.89898
G1 X333.821 Y300.55 E23.92829
G1 X334.003 Y301.478 E23.96603
G1 X334.125 Y302.813 E24.01954
G1 X334.14 Y303.47 E24.04577
G1 X334.139 Y322.54 E24.80689
G1 X334.128 Y323.303 E24.83735
G1 X334.071 Y324.276 E24.87625
G1 X333.926 Y325.239 E24.91512
G1 X333.697 Y326.185 E24.95396
G1 X333.386 Y327.109 E24.99288
G1 X332.994 Y328 E25.03173
G1 X332.526 Y328.852 E25.07052
G1 X332.004 Y329.633 E25.10802
G1 X331.371 Y330.418 E25.14827
G1 X330.746 Y331.069 E25.18428
G1 X329.957 Y331.757 E25.22607
G1 X329.197 Y332.307 E25.26351
G1 X328.33 Y332.824 E25.3038
G1 X327.452 Y333.246 E25.34268
G1 X326.541 Y333.588 E25.38152
G1 X325.602 Y333.849 E25.42041
G1 X324.636 Y334.027 E25.45962
G1 X323.485 Y334.125 E25.50572
G1 X322.81 Y334.14 E25.53267
G1 X303.69 Y334.139 E26.29579
G1 X302.953 Y334.127 E26.32521
G1 X301.981 Y334.068 E26.36408
G1 X301.033 Y333.926 E26.40234
G1 X300.54 Y333.818 E26.42248
G1 X299.914 Y333.665 E26.4482
G1 X297.327 Y333.068 E26.55417
G1 X294.891 Y332.58 E26.65332
G1 X292.414 Y332.154 E26.75364
G1 X289.891 Y331.795 E26.85535
G1 X287.442 Y331.517 E26.95372
G1 X284.918 Y331.3 E27.05483
G1 X282.404 Y331.159 E27.15533
G1 X279.865 Y331.086 E27.25671
G1 X277.374 Y331.086 E27.35613
G1 X274.848 Y331.157 E27.45699
G1 X272.352 Y331.299 E27.55677
G1 X269.804 Y331.513 E27.65882
G1 X267.346 Y331.793 E27.75756
G1 X264.813 Y332.153 E27.85968
G1 X262.337 Y332.577 E27.95994
G1 X259.922 Y333.06 E28.05823
G1 X257.314 Y333.661 E28.16505
G1 X256.619 Y333.829 E28.19359
G1 X255.733 Y334.003 E28.22963
G1 X254.364 Y334.127 E28.28449
G1 X253.74 Y334.14 E28.3094
G1 X234.62 Y334.139 E29.07252
G1 X233.883 Y334.127 E29.10194
G1 X232.911 Y334.068 E29.14081
G1 X231.963 Y333.926 E29.17907
G1 X231.47 Y333.818 E29.19921
G1 X230.844 Y333.665 E29.22493
G1 X228.257 Y333.068 E29.3309
G1 X225.821 Y332.58 E29.43005
G1 X223.344 Y332.154 E29.53037
G1 X220.821 Y331.795 E29.63208
G1 X218.372 Y331.517 E29.73045
G1 X215.848 Y331.3 E29.83156
G1 X213.334 Y331.159 E29.93206
G1 X210.795 Y331.086 E30.03344
G1 X208.304 Y331.086 E30.13286
G1 X205.778 Y331.157 E30.23372
G1 X203.282 Y331.299 E30.3335
G1 X200.734 Y331.513 E30.43555
G1 X198.276 Y331.793 E30.53429
G1 X195.743 Y332.153 E30.63641
G1 X193.267 Y332.577 E30.73667
G1 X190.852 Y333.06 E30.83496
G1 X188.244 Y333.661 E30.94178
G1 X187.549 Y333.829 E30.97032
G1 X186.663 Y334.003 E31.00636
G1 X185.294 Y334.127 E31.06122
G1 X184.67 Y334.14 E31.08613
G1 X165.55 Y334.139 E31.84925
G1 X164.813 Y334.127 E31.87867
G1 X163.841 Y334.068 E31.91754
G1 X162.893 Y333.926 E31.9558
G1 X162.4 Y333.818 E31.97594
G1 X161.774 Y333.665 E32.00166
G1 X159.187 Y333.068 E32.10763
G1 X156.751 Y332.58 E32.20679
G1 X154.274 Y332.154 E32.3071
G1 X151.751 Y331.795 E32.40881
G1 X149.302 Y331.517 E32.50718
G1 X146.778 Y331.3 E32.60829
G1 X144.264 Y331.159 E32.70879
G1 X141.725 Y331.086 E32.81017
G1 X139.234 Y331.086 E32.90959
G1 X136.708 Y331.157 E33.01045
G1 X134.212 Y331.299 E33.11023
G1 X131.664 Y331.513 E33.21229
G1 X129.206 Y331.793 E33.31102
G1 X126.673 Y332.153 E33.41314
G1 X124.197 Y332.577 E33.5134
G1 X121.782 Y333.06 E33.61169
G1 X119.174 Y333.661 E33.71851
G1 X118.479 Y333.829 E33.74705
G1 X117.593 Y334.003 E33.78309
G1 X116.224 Y334.127 E33.83795
G1 X115.6 Y334.14 E33.86286
G1 X96.48 Y334.139 E34.62598
G1 X95.743 Y334.127 E34.6554
G1 X94.771 Y334.068 E34.69427
G1 X93.823 Y333.926 E34.73253
G1 X93.33 Y333.818 E34.75267
G1 X92.704 Y333.665 E34.77839
G1 X90.117 Y333.068 E34.88436
G1 X87.681 Y332.58 E34.98352
G1 X85.204 Y332.154 E35.08383
G1 X82.681 Y331.795 E35.18554
G1 X80.232 Y331.517 E35.28392
G1 X77.708 Y331.3 E35.38503
G1 X75.194 Y331.159 E35.48552
G1 X72.655 Y331.086 E35.5869
G1 X70.164 Y331.086 E35.68632
G1 X67.638 Y331.157 E35.78718
G1 X65.142 Y331.299 E35.88696
G1 X62.594 Y331.513 E35.98902
G1 X60.136 Y331.793 E36.08775
G1 X57.603 Y332.153 E36.18987
G1 X55.127 Y332.577 E36.29013
G1 X52.712 Y333.06 E36.38843
G1 X50.104 Y333.661 E36.49524
G1 X49.409 Y333.829 E36.52378
G1 X48.523 Y334.003 E36.55982
G1 X47.154 Y334.127 E36.61468
G1 X46.53 Y334.14 E36.63959
G1 X27.424 Y334.139 E37.40216
G1 X26.691 Y334.128 E37.43142
G1 X25.719 Y334.071 E37.47028
G1 X24.756 Y333.925 E37.50915
G1 X23.81 Y333.696 E37.548
G1 X22.886 Y333.384 E37.58692
G1 X21.996 Y332.992 E37.62574
G1 X21.173 Y332.541 E37.66319
G1 X20.334 Y331.98 E37.70348
G1 X19.63 Y331.414 E37.73953
G1 X18.877 Y330.689 E37.78125
G1 X18.24 Y329.953 E37.8201
G1 X17.71 Y329.222 E37.85614
G1 X17.174 Y328.325 E37.89784
G1 X16.752 Y327.447 E37.93672
G1 X16.41 Y326.535 E37.9756
G1 X16.15 Y325.597 E38.01445
G1 X15.972 Y324.628 E38.05377
G1 X15.874 Y323.449 E38.10099
G1 X15.86 Y322.798 E38.12698
G1 X15.861 Y303.675 E38.89022
G1 X15.874 Y302.933 E38.91984
G1 X15.934 Y301.961 E38.9587
G1 X16.073 Y301.041 E38.99584
G1 X16.184 Y300.532 E39.01663
G1 X16.334 Y299.918 E39.04186
G1 X16.932 Y297.327 E39.14799
G1 X17.422 Y294.883 E39.24748
G1 X17.85 Y292.39 E39.34843
G1 X18.205 Y289.891 E39.44918
G1 X18.483 Y287.442 E39.54755
G1 X18.7 Y284.918 E39.64866
G1 X18.841 Y282.404 E39.74916
G1 X18.914 Y279.865 E39.85053
G1 X18.914 Y277.352 E39.95083
G1 X18.843 Y274.847 E40.05085
G1 X18.701 Y272.352 E40.1506
G1 X18.487 Y269.803 E40.25269
G1 X18.207 Y267.341 E40.35159
G1 X17.848 Y264.817 E40.45334
G1 X17.423 Y262.33 E40.55404
G1 X16.94 Y259.922 E40.65206
G1 X16.354 Y257.37 E40.75657
G1 X16.179 Y256.66 E40.78575
G1 X15.997 Y255.732 E40.8235
G1 X15.875 Y254.397 E40.877
G1 X15.86 Y253.74 E40.90323
G1 X15.861 Y234.605 E41.66695
G1 X15.874 Y233.863 E41.69657
G1 X15.934 Y232.891 E41.73544
G1 X16.073 Y231.971 E41.77258
G1 X16.184 Y231.462 E41.79337
G1 X16.334 Y230.848 E41.8186
G1 X16.932 Y228.257 E41.92473
G1 X17.422 Y225.813 E42.02421
G1 X17.85 Y223.32 E42.12517
G1 X18.205 Y220.821 E42.22591
G1 X18.483 Y218.372 E42.32428
G1 X18.7 Y215.848 E42.42539
G1 X18.841 Y213.334 E42.52589
G1 X18.914 Y210.795 E42.62727
G1 X18.914 Y208.282 E42.72757
G1 X18.843 Y205.777 E42.82759
G1 X18.701 Y203.282 E42.92733
G1 X18.487 Y200.733 E43.02943
G1 X18.207 Y198.271 E43.12832
G1 X17.848 Y195.747 E43.23007
G1 X17.423 Y193.26 E43.33077
G1 X16.94 Y190.852 E43.4288
G1 X16.354 Y188.3 E43.5333
G1 X16.179 Y187.59 E43.56249
G1 X15.997 Y186.662 E43.60023
G1 X15.875 Y185.327 E43.65374
G1 X15.86 Y184.67 E43.67997
G1 X15.861 Y165.535 E44.44369
G1 X15.874 Y164.793 E44.47331
G1 X15.934 Y163.821 E44.51218
G1 X16.073 Y162.901 E44.54931
G1 X16.184 Y162.392 E44.5701
G1 X16.334 Y161.778 E44.59533
G1 X16.932 Y159.187 E44.70146
G1 X17.422 Y156.743 E44.80095
G1 X17.85 Y154.25 E44.9019
G1 X18.205 Y151.751 E45.00265
G1 X18.483 Y149.302 E45.10102
G1 X18.7 Y146.778 E45.20213
G1 X18.841 Y144.264 E45.30263
G1 X18.914 Y141.725 E45.404
G1 X18.914 Y139.212 E45.5043
G1 X18.843 Y136.707 E45.60432
G1 X18.701 Y134.212 E45.70407
G1 X18.487 Y131.663 E45.80616
G1 X18.207 Y129.201 E45.90506
G1 X17.848 Y126.677 E46.00681
G1 X17.423 Y124.19 E46.10751
G1 X16.94 Y121.782 E46.20553
G1 X16.354 Y119.23 E46.31004
G1 X16.179 Y118.52 E46.33923
G1 X15.997 Y117.592 E46.37697
G1 X15.875 Y116.257 E46.43047
G1 X15.86 Y115.6 E46.4567
G1 X15.861 Y96.465 E47.22042
G1 X15.874 Y95.723 E47.25004
G1 X15.934 Y94.751 E47.28891
G1 X16.073 Y93.831 E47.32605
G1 X16.184 Y93.322 E47.34684
G1 X16.334 Y92.708 E47.37207
G1 X16.932 Y90.117 E47.4782
G1 X17.422 Y87.673 E47.57768
G1 X17.85 Y85.18 E47.67864
G1 X18.205 Y82.681 E47.77938
G1 X18.483 Y80.232 E47.87775
G1 X18.7 Y77.708 E47.97886
G1 X18.841 Y75.194 E48.07936
G1 X18.914 Y72.655 E48.18074
G1 X18.914 Y70.142 E48.28104
G1 X18.843 Y67.637 E48.38106
G1 X18.701 Y65.142 E48.4808
G1 X18.487 Y62.593 E48.5829
G1 X18.207 Y60.131 E48.68179
G1 X17.848 Y57.607 E48.78354
G1 X17.423 Y55.12 E48.88425
G1 X16.94 Y52.712 E48.98227
G1 X16.354 Y50.16 E49.08677
G1 X16.179 Y49.45 E49.11596
G1 X15.997 Y48.522 E49.1537
G1 X15.875 Y47.187 E49.20721
G1 X15.86 Y46.53 E49.23344
G1 X15.861 Y27.385 E49.99756
G1 X15.872 Y26.685 E50.0255
G1 X15.93 Y25.712 E50.0644
G1 X16.076 Y24.749 E50.10328
G1 X16.306 Y23.803 E50.14213
G1 X16.619 Y22.88 E50.18103
G1 X17.011 Y21.99 E50.21985
G1 X17.481 Y21.137 E50.25872
G1 X18.024 Y20.329 E50.29757
G1 X18.591 Y19.625 E50.33365
G1 X19.316 Y18.873 E50.37534
G0 F6000 X19.578 Y19.175
G1 F1200 X20.287 Y18.56 E50.4128
G1 X21.019 Y18.03 E50.44887
G1 X21.855 Y17.531 E50.48773
G1 X22.7 Y17.124 E50.52517
