; generated by PrusaSlicer 2.6.1+win64 on 2023-11-07 at 13:07:22 UTC

; 

; external perimeters extrusion width = 0.45mm
; perimeters extrusion width = 0.45mm
; infill extrusion width = 0.45mm
; solid infill extrusion width = 0.45mm
; top infill extrusion width = 0.40mm
; first layer extrusion width = 0.42mm

M201 X500 Y500 Z100 E1000 ; sets maximum accelerations, mm/sec^2


; Pre-Processed for Cancel-Object support by preprocess_cancellation v0.2.0
; 1 known objects
EXCLUDE_OBJECT_DEFINE NAME=Kolbalt_Mini_Toolbox_CF_plate_1_stl_id_0_copy_0 CENTER=180.086,179.925 POLYGON=[[117.348,70.21],[117.348,289.79],[242.652,289.79],[242.652,70.21]]
M203 X300 Y300 Z5 E60 ; sets maximum feedrates, mm / sec
M204 S500 T1000 ; sets acceleration (S) and retract acceleration (R), mm/sec^2
M205 X8.00 Y8.00 Z0.40 E5.00 ; sets the jerk limits, mm/sec
M205 S0 T0 ; sets the minimum extruding and travel feed rate, mm/sec
;TYPE:Custom
M109 S0
M190 S0
start_print EXTRUDER_TEMP=210 BED_TEMP=70

G21 ; set units to millimeters
G90 ; use absolute coordinates
M83 ; use relative distances for extrusion
; Filament gcode
M107
;LAYER_CHANGE
;Z:0.25
;HEIGHT:0.25
;BEFORE_LAYER_CHANGE
G92 E0
;0.25


G1 E-6 F3600
G1 Z.25 F7800
;AFTER_LAYER_CHANGE
;0.25
G1 X116.423 Y71.066
G1 E6 F2400
;TYPE:Skirt/Brim
;WIDTH:0.42
G1 F1800
G1 X116.878 Y70.425 E.02993
G1 X117.418 Y69.851 E.03001
G1 X118.032 Y69.358 E.02998
G1 X118.71 Y68.955 E.03003
G1 X119.437 Y68.651 E.03001
G1 X120.205 Y68.449 E.03024
G1 X121.217 Y68.351 E.03871
G1 X238.79 Y68.352 E4.4769
G1 X239.524 Y68.405 E.02802
G1 X240.242 Y68.552 E.02791
G1 X241.035 Y68.835 E.03206
G1 X241.8 Y69.246 E.03307
G1 X242.389 Y69.681 E.02788
G1 X242.902 Y70.171 E.02701
G1 X243.471 Y70.899 E.03518
G1 X243.825 Y71.523 E.02732
G1 X244.1 Y72.189 E.02744
G1 X244.317 Y73.049 E.03377
G1 X244.399 Y73.969 E.03517
G1 X244.399 Y286.026 E8.07462
G1 X244.342 Y286.797 E.02944
G1 X244.184 Y287.542 E.029
G1 X243.928 Y288.257 E.02892
G1 X243.577 Y288.933 E.029
G1 X243.122 Y289.575 E.02996
G1 X242.582 Y290.149 E.03001
G1 X241.968 Y290.642 E.02998
G1 X241.29 Y291.045 E.03003
G1 X240.563 Y291.349 E.03001
G1 X239.795 Y291.551 E.03024
G1 X238.783 Y291.649 E.03871
G1 X121.224 Y291.649 E4.47637
G1 X120.453 Y291.592 E.02944
G1 X119.708 Y291.434 E.029
G1 X118.993 Y291.178 E.02892
G1 X118.317 Y290.827 E.029
G1 X117.675 Y290.372 E.02996
G1 X117.101 Y289.832 E.03001
G1 X116.608 Y289.218 E.02998
G1 X116.205 Y288.54 E.03003
G1 X115.901 Y287.813 E.03001
G1 X115.699 Y287.045 E.03024
G1 X115.601 Y286.033 E.03871
G1 X115.601 Y73.974 E8.0747
G1 X115.658 Y73.203 E.02944
G1 X115.816 Y72.459 E.02896
G1 X116.073 Y71.741 E.02904
G1 X116.396 Y71.119 E.02669
G1 X116.72 Y71.289 F7800
G1 F1800
G1 X117.169 Y70.647 E.02983
G1 X117.675 Y70.112 E.02804
G1 X118.251 Y69.652 E.02807
G1 X118.885 Y69.277 E.02805
G1 X119.565 Y68.994 E.02805
G1 X120.283 Y68.807 E.02825
G1 X121.226 Y68.718 E.03607
G1 X238.783 Y68.719 E4.47629
G1 X239.485 Y68.77 E.0268
G1 X240.155 Y68.908 E.02605
G1 X240.874 Y69.164 E.02906
G1 X241.594 Y69.549 E.03109
G1 X242.145 Y69.954 E.02604
G1 X242.64 Y70.426 E.02604
G1 X243.159 Y71.092 E.03215
G1 X243.501 Y71.694 E.02636
G1 X243.756 Y72.316 E.0256
G1 X243.958 Y73.124 E.03171
G1 X244.032 Y73.976 E.03256
G1 X244.032 Y286.019 E8.07409
G1 X243.981 Y286.734 E.02729
G1 X243.828 Y287.453 E.02799
G1 X243.587 Y288.121 E.02704
G1 X243.258 Y288.752 E.0271
G1 X242.831 Y289.352 E.02804
G1 X242.325 Y289.888 E.02807
G1 X241.749 Y290.348 E.02807
G1 X241.115 Y290.723 E.02805
G1 X240.435 Y291.006 E.02805
G1 X239.717 Y291.193 E.02825
G1 X238.774 Y291.282 E.03607
G1 X121.231 Y291.282 E4.47576
G1 X120.516 Y291.231 E.02729
G1 X119.797 Y291.078 E.02799
G1 X119.129 Y290.837 E.02704
G1 X118.498 Y290.508 E.0271
G1 X117.898 Y290.081 E.02804
G1 X117.362 Y289.575 E.02807
G1 X116.902 Y288.999 E.02807
G1 X116.527 Y288.365 E.02805
G1 X116.244 Y287.685 E.02805
G1 X116.057 Y286.967 E.02825
G1 X115.968 Y286.024 E.03607
G1 X115.968 Y73.981 E8.07409
G1 X116.019 Y73.266 E.02729
G1 X116.165 Y72.57 E.02708
G1 X116.414 Y71.876 E.02808
G1 X116.693 Y71.342 E.02294
G1 X117.017 Y71.512 F7800
G1 F1800
G1 X117.459 Y70.871 E.02965
G1 X117.931 Y70.374 E.0261
G1 X118.468 Y69.947 E.02612
G1 X119.059 Y69.6 E.0261
G1 X119.693 Y69.338 E.02612
G1 X120.36 Y69.166 E.02623
G1 X121.234 Y69.084 E.03343
G1 X238.777 Y69.085 E4.47576
G1 X239.423 Y69.131 E.02466
G1 X240.068 Y69.264 E.02508
G1 X240.738 Y69.504 E.0271
G1 X241.388 Y69.852 E.02807
G1 X241.918 Y70.242 E.02506
G1 X242.376 Y70.681 E.02416
G1 X242.847 Y71.285 E.02916
G1 X243.167 Y71.844 E.02453
G1 X243.412 Y72.442 E.02461
G1 X243.599 Y73.197 E.02962
G1 X243.666 Y73.984 E.03008
G1 X243.666 Y286.013 E8.07356
G1 X243.619 Y286.671 E.02512
G1 X243.479 Y287.342 E.0261
G1 X243.256 Y287.963 E.02512
G1 X242.94 Y288.571 E.02609
G1 X242.541 Y289.129 E.02612
G1 X242.069 Y289.626 E.0261
G1 X241.532 Y290.053 E.02612
G1 X240.941 Y290.4 E.0261
G1 X240.307 Y290.662 E.02612
G1 X239.64 Y290.834 E.02623
G1 X238.766 Y290.916 E.03343
G1 X121.237 Y290.916 E4.47522
G1 X120.579 Y290.869 E.02512
G1 X119.908 Y290.729 E.0261
G1 X119.287 Y290.506 E.02512
G1 X118.679 Y290.19 E.02609
G1 X118.121 Y289.791 E.02612
G1 X117.624 Y289.319 E.0261
G1 X117.197 Y288.782 E.02612
G1 X116.85 Y288.191 E.0261
G1 X116.588 Y287.557 E.02612
G1 X116.416 Y286.89 E.02623
G1 X116.334 Y286.016 E.03343
G1 X116.334 Y73.987 E8.07356
G1 X116.381 Y73.329 E.02512
G1 X116.521 Y72.658 E.0261
G1 X116.754 Y72.013 E.02611
G1 X116.989 Y71.565 E.01926
G1 X117.313 Y71.736 F7800
G1 F1800
G1 X117.378 Y71.611 E.00536
G1 X117.749 Y71.096 E.02417
G1 X118.187 Y70.637 E.02416
G1 X118.685 Y70.243 E.02418
G1 X119.233 Y69.923 E.02416
G1 X119.82 Y69.682 E.02416
G1 X120.436 Y69.524 E.02422
G1 X121.242 Y69.45 E.03082
G1 X238.77 Y69.451 E4.47519
G1 X239.384 Y69.495 E.02344
G1 X239.98 Y69.62 E.02319
G1 X240.601 Y69.844 E.02514
G1 X241.182 Y70.156 E.02511
G1 X241.674 Y70.515 E.02319
G1 X242.113 Y70.937 E.02319
G1 X242.536 Y71.478 E.02615
G1 X242.842 Y72.015 E.02353
G1 X243.068 Y72.568 E.02275
G1 X243.235 Y73.243 E.02648
G1 X243.3 Y73.992 E.02863
G1 X243.3 Y286.006 E8.07299
G1 X243.255 Y286.632 E.0239
G1 X243.123 Y287.253 E.02417
G1 X242.916 Y287.827 E.02323
G1 X242.621 Y288.389 E.02417
G1 X242.251 Y288.904 E.02415
G1 X241.813 Y289.363 E.02416
G1 X241.315 Y289.757 E.02418
G1 X240.767 Y290.077 E.02416
G1 X240.18 Y290.318 E.02416
G1 X239.564 Y290.476 E.02422
G1 X238.758 Y290.55 E.03082
G1 X121.244 Y290.55 E4.47465
G1 X120.618 Y290.505 E.0239
G1 X119.997 Y290.373 E.02417
G1 X119.423 Y290.166 E.02323
G1 X118.861 Y289.871 E.02417
G1 X118.346 Y289.501 E.02415
G1 X117.887 Y289.063 E.02416
G1 X117.493 Y288.565 E.02418
G1 X117.173 Y288.017 E.02416
G1 X116.932 Y287.43 E.02416
G1 X116.774 Y286.814 E.02422
G1 X116.7 Y286.008 E.03082
G1 X116.7 Y73.994 E8.07299
G1 X116.745 Y73.368 E.0239
G1 X116.877 Y72.747 E.02417
G1 X117.094 Y72.15 E.02419
G1 X117.285 Y71.789 E.01555
G1 X117.609 Y71.96 F7800
G1 F1800
G1 X117.696 Y71.794 E.00714
G1 X118.038 Y71.321 E.02223
G1 X118.442 Y70.9 E.02222
G1 X118.901 Y70.539 E.02224
G1 X119.405 Y70.246 E.0222
G1 X119.946 Y70.026 E.02224
G1 X120.512 Y69.883 E.02223
G1 X121.25 Y69.817 E.02821
G1 X238.764 Y69.818 E4.47465
G1 X239.345 Y69.86 E.02218
G1 X239.891 Y69.976 E.02125
G1 X240.463 Y70.184 E.02318
G1 X240.977 Y70.459 E.0222
G1 X241.429 Y70.788 E.02129
G1 X241.85 Y71.192 E.02222
G1 X242.225 Y71.671 E.02316
G1 X242.508 Y72.165 E.02168
G1 X242.724 Y72.695 E.02179
G1 X242.872 Y73.289 E.02331
G1 X242.933 Y74 E.02717
G1 X242.933 Y286 E8.07245
G1 X242.894 Y286.57 E.02175
G1 X242.774 Y287.141 E.02222
G1 X242.576 Y287.69 E.02222
G1 X242.304 Y288.206 E.02221
G1 X241.962 Y288.679 E.02223
G1 X241.558 Y289.1 E.02222
G1 X241.099 Y289.461 E.02224
G1 X240.595 Y289.754 E.0222
G1 X240.054 Y289.974 E.02224
G1 X239.488 Y290.117 E.02223
G1 X238.75 Y290.183 E.02821
G1 X121.25 Y290.183 E4.47412
G1 X120.68 Y290.144 E.02175
G1 X120.109 Y290.024 E.02222
G1 X119.56 Y289.826 E.02222
G1 X119.044 Y289.554 E.02221
G1 X118.571 Y289.212 E.02223
G1 X118.15 Y288.808 E.02222
G1 X117.789 Y288.349 E.02224
G1 X117.496 Y287.845 E.0222
G1 X117.276 Y287.304 E.02224
G1 X117.133 Y286.738 E.02223
G1 X117.067 Y286 E.02821
G1 X117.067 Y74 E8.07245
G1 X117.106 Y73.43 E.02175
G1 X117.226 Y72.859 E.02222
G1 X117.424 Y72.31 E.02222
G1 X117.581 Y72.013 E.01279
; printing object Kolbalt Mini Toolbox CF plate(1).stl id:0 copy 0
EXCLUDE_OBJECT_START NAME=Kolbalt_Mini_Toolbox_CF_plate_1_stl_id_0_copy_0
G1 E-4.2 F3600
;WIPE_START
G1 F6240
G1 X117.696 Y71.794 E-.13557
G1 X118.038 Y71.321 E-.31991
G1 X118.442 Y70.9 E-.3198
G1 X118.901 Y70.539 E-.32005
G1 X119.405 Y70.246 E-.31952
G1 X119.946 Y70.026 E-.32009
G1 X120.061 Y69.997 E-.06506
;WIPE_END
G1 X241.771 Y114.033 F7800
G1 E6 F2400
;TYPE:Perimeter
;WIDTH:0.518239
G1 F1800
G1 X241.783 Y114.145 E.00544
;WIDTH:0.469119
G1 X241.807 Y114.375 E.00999
;WIDTH:0.419999
G1 X241.807 Y119.302 E.18761
;WIDTH:0.427445
G1 X241.804 Y120.175 E.03392
;WIDTH:0.469093
G1 X241.783 Y120.3 E.00547
;WIDTH:0.51074
G1 X241.762 Y120.426 E.00607
;WIDTH:0.552387
G1 X241.741 Y120.551 E.00657
G1 X241.746 Y120.773 E.01151
;WIDTH:0.54235
G1 X241.746 Y155.227 E1.75007
;WIDTH:0.567359
G1 X241.734 Y155.684 E.02441
G1 X241.758 Y155.915 E.0124
;WIDTH:0.518239
G1 X241.783 Y156.145 E.01117
;WIDTH:0.469119
G1 X241.807 Y156.375 E.00999
;WIDTH:0.419999
G1 X241.807 Y161.302 E.18761
;WIDTH:0.427446
G1 X241.804 Y162.175 E.03392
;WIDTH:0.469093
G1 X241.783 Y162.3 E.00547
;WIDTH:0.51074
G1 X241.762 Y162.426 E.00607
;WIDTH:0.552387
G1 X241.741 Y162.551 E.00657
G1 X241.746 Y162.773 E.01151
;WIDTH:0.54235
G1 X241.746 Y197.227 E1.75007
;WIDTH:0.567359
G1 X241.734 Y197.684 E.02441
G1 X241.758 Y197.915 E.0124
;WIDTH:0.518239
G1 X241.783 Y198.145 E.01117
;WIDTH:0.469119
G1 X241.807 Y198.375 E.00999
;WIDTH:0.419999
G1 X241.807 Y203.302 E.18761
;WIDTH:0.427446
G1 X241.804 Y204.175 E.03392
;WIDTH:0.469093
G1 X241.783 Y204.3 E.00547
;WIDTH:0.51074
G1 X241.762 Y204.426 E.00607
;WIDTH:0.552387
G1 X241.741 Y204.551 E.00657
G1 X241.746 Y204.773 E.01151
;WIDTH:0.54235
G1 X241.746 Y239.227 E1.75007
;WIDTH:0.567359
G1 X241.734 Y239.684 E.02441
G1 X241.758 Y239.915 E.0124
;WIDTH:0.518239
G1 X241.783 Y240.145 E.01117
;WIDTH:0.469119
G1 X241.807 Y240.375 E.00999
;WIDTH:0.419999
G1 X241.807 Y245.302 E.18761
;WIDTH:0.427448
G1 X241.804 Y246.175 E.03392
;WIDTH:0.469095
G1 X241.783 Y246.3 E.00547
;WIDTH:0.510741
G1 X241.762 Y246.426 E.00607
;WIDTH:0.552387
G1 X241.741 Y246.551 E.00657
G1 X241.746 Y246.773 E.01151
;WIDTH:0.54235
G1 X241.746 Y281.227 E1.75007
;WIDTH:0.567359
G1 X241.734 Y281.684 E.02441
G1 X241.758 Y281.915 E.0124
;WIDTH:0.518239
G1 X241.783 Y282.145 E.01117
;WIDTH:0.469119
G1 X241.807 Y282.375 E.00999
;WIDTH:0.419999
G1 X241.807 Y285.874 E.13323
G1 X241.775 Y286.425 E.02102
G1 X241.61 Y287.054 E.02476
G1 X241.341 Y287.619 E.02383
G1 X240.935 Y288.124 E.02467
G1 X240.458 Y288.533 E.02393
G1 X239.876 Y288.832 E.02491
G1 X239.289 Y289.007 E.02332
G1 X238.709 Y289.057 E.02217
G1 X121.385 Y289.057 E4.46741
G1 X120.825 Y289.025 E.02136
G1 X120.199 Y288.861 E.02464
G1 X119.631 Y288.591 E.02395
G1 X119.126 Y288.185 E.02467
G1 X118.717 Y287.708 E.02393
G1 X118.418 Y287.126 E.02491
G1 X118.243 Y286.539 E.02332
G1 X118.193 Y285.959 E.02217
G1 X118.193 Y282.698 E.12417
;WIDTH:0.424496
G1 X118.195 Y281.825 E.03365
;WIDTH:0.465898
G1 X118.216 Y281.7 E.00543
;WIDTH:0.507299
G1 X118.236 Y281.574 E.00602
;WIDTH:0.5487
G1 X118.257 Y281.449 E.00652
G1 X118.254 Y281.227 E.01142
;WIDTH:0.542351
G1 X118.254 Y246.773 E1.75008
;WIDTH:0.563096
G1 X118.264 Y246.372 E.02124
G1 X118.243 Y246.253 E.0064
;WIDTH:0.519964
G1 X118.221 Y246.133 E.00591
;WIDTH:0.476832
G1 X118.2 Y246.014 E.00532
;WIDTH:0.4337
G1 X118.193 Y245.625 E.01537
;WIDTH:0.419999
G1 X118.193 Y240.698 E.18761
;WIDTH:0.424496
G1 X118.195 Y239.825 E.03365
;WIDTH:0.465897
G1 X118.216 Y239.7 E.00543
;WIDTH:0.507298
G1 X118.236 Y239.574 E.00602
;WIDTH:0.548699
G1 X118.257 Y239.449 E.00652
G1 X118.254 Y239.227 E.01142
;WIDTH:0.542351
G1 X118.254 Y204.773 E1.75008
;WIDTH:0.563095
G1 X118.264 Y204.372 E.02124
G1 X118.243 Y204.253 E.0064
;WIDTH:0.519962
G1 X118.221 Y204.133 E.00591
;WIDTH:0.476829
G1 X118.2 Y204.014 E.00532
;WIDTH:0.433695
G1 X118.193 Y203.625 E.01537
;WIDTH:0.419999
G1 X118.193 Y198.698 E.18761
;WIDTH:0.4245
G1 X118.195 Y197.825 E.03365
;WIDTH:0.465902
G1 X118.216 Y197.699 E.00547
;WIDTH:0.507304
G1 X118.236 Y197.574 E.00597
;WIDTH:0.548705
G1 X118.257 Y197.449 E.00652
G1 X118.254 Y197.227 E.01142
;WIDTH:0.542351
G1 X118.254 Y162.773 E1.75008
;WIDTH:0.563095
G1 X118.264 Y162.372 E.02124
G1 X118.243 Y162.253 E.0064
;WIDTH:0.519962
G1 X118.221 Y162.133 E.00591
;WIDTH:0.476829
G1 X118.2 Y162.014 E.00532
;WIDTH:0.433695
G1 X118.193 Y161.625 E.01537
;WIDTH:0.419999
G1 X118.193 Y156.698 E.18761
;WIDTH:0.4245
G1 X118.195 Y155.825 E.03365
;WIDTH:0.465902
G1 X118.216 Y155.699 E.00547
;WIDTH:0.507304
G1 X118.236 Y155.574 E.00597
;WIDTH:0.548705
G1 X118.257 Y155.449 E.00652
G1 X118.254 Y155.227 E.01142
;WIDTH:0.542351
G1 X118.254 Y120.773 E1.75008
;WIDTH:0.563096
G1 X118.264 Y120.372 E.02124
G1 X118.243 Y120.253 E.0064
;WIDTH:0.519961
G1 X118.221 Y120.133 E.00591
;WIDTH:0.476826
G1 X118.2 Y120.014 E.00531
;WIDTH:0.433691
G1 X118.193 Y119.625 E.01537
;WIDTH:0.419999
G1 X118.193 Y114.698 E.18761
;WIDTH:0.424498
G1 X118.195 Y113.825 E.03365
;WIDTH:0.4659
G1 X118.216 Y113.699 E.00547
;WIDTH:0.507302
G1 X118.236 Y113.574 E.00597
;WIDTH:0.548703
G1 X118.257 Y113.449 E.00652
G1 X118.254 Y113.227 E.01142
;WIDTH:0.542351
G1 X118.254 Y78.773 E1.75008
;WIDTH:0.563094
G1 X118.264 Y78.372 E.02124
G1 X118.243 Y78.253 E.0064
;WIDTH:0.519959
G1 X118.221 Y78.133 E.00591
;WIDTH:0.476823
G1 X118.2 Y78.014 E.00531
;WIDTH:0.433687
G1 X118.193 Y77.625 E.01537
;WIDTH:0.419999
G1 X118.193 Y74.126 E.13323
G1 X118.225 Y73.575 E.02102
G1 X118.39 Y72.946 E.02476
G1 X118.659 Y72.381 E.02383
G1 X119.065 Y71.876 E.02467
G1 X119.542 Y71.467 E.02393
G1 X120.124 Y71.168 E.02491
G1 X120.711 Y70.993 E.02332
G1 X121.291 Y70.943 E.02217
G1 X238.629 Y70.944 E4.46794
G1 X239.175 Y70.975 E.02082
G1 X239.801 Y71.139 E.02464
G1 X240.369 Y71.409 E.02395
G1 X240.874 Y71.815 E.02467
G1 X241.283 Y72.292 E.02393
G1 X241.581 Y72.874 E.0249
G1 X241.757 Y73.461 E.02333
G1 X241.807 Y74.157 E.02657
G1 X241.807 Y77.302 E.11975
;WIDTH:0.427442
G1 X241.804 Y78.175 E.03392
;WIDTH:0.469091
G1 X241.783 Y78.3 E.00547
;WIDTH:0.510739
G1 X241.762 Y78.426 E.00607
;WIDTH:0.552387
G1 X241.741 Y78.551 E.00657
G1 X241.746 Y78.773 E.01151
;WIDTH:0.54235
G1 X241.746 Y113.227 E1.75007
;WIDTH:0.567359
G1 X241.734 Y113.684 E.02441
G1 X241.758 Y113.915 E.0124
;WIDTH:0.518239
G1 X241.764 Y113.973 E.00282
G1 E-4.2 F3600
;WIPE_START
G1 F6240
G1 X241.783 Y114.145 E-.09484
G1 X241.807 Y114.375 E-.12674
G1 X241.807 Y117.255 E-1.57842
;WIPE_END
G1 X240.732 Y71.235 F7800
G1 E6 F2400
;WIDTH:0.419999
G1 F1800
G1 X240.95 Y71.378 E.00993
G1 X241.447 Y71.907 E.02764
G1 X241.819 Y72.489 E.0263
G1 X242.059 Y73.161 E.02717
G1 X242.141 Y73.647 E.01877
G1 X242.174 Y74.157 E.01946
G1 X242.174 Y285.195 E8.03581
G1 X242.166 Y286.086 E.03393
G1 X242.087 Y286.723 E.02444
G1 X241.876 Y287.392 E.02671
G1 X241.506 Y288.015 E.02759
G1 X241.04 Y288.543 E.02682
G1 X240.465 Y288.952 E.02687
G1 X240.014 Y289.171 E.01909
G1 X239.349 Y289.369 E.02642
G1 X238.725 Y289.424 E.02385
G1 X121.385 Y289.424 E4.46802
G1 X121.155 Y289.416 E.00876
G1 X120.532 Y289.338 E.02391
G1 X119.858 Y289.126 E.0269
G1 X119.236 Y288.756 E.02756
G1 X118.707 Y288.29 E.02684
G1 X118.299 Y287.716 E.02682
G1 X118.079 Y287.264 E.01914
G1 X117.881 Y286.599 E.02642
G1 X117.826 Y285.975 E.02385
G1 X117.826 Y74.805 E8.04084
G1 X117.834 Y73.914 E.03393
G1 X117.913 Y73.277 E.02444
G1 X118.124 Y72.608 E.02671
G1 X118.494 Y71.985 E.02759
G1 X118.96 Y71.457 E.02682
G1 X119.535 Y71.048 E.02687
G1 X119.986 Y70.829 E.01909
G1 X120.651 Y70.631 E.02642
G1 X121.275 Y70.576 E.02385
G1 X238.629 Y70.577 E4.46855
G1 X238.997 Y70.595 E.01403
G1 X239.693 Y70.71 E.02686
G1 X240.361 Y70.99 E.02758
G1 X240.682 Y71.202 E.01465
G1 X240.939 Y70.922 F7800
;TYPE:External perimeter
